svg/color/fan.svg

<?xml version="1.0" encoding="UTF-8" ?>
<!DOCTYPE svg PUBLIC "-//W3C//DTD SVG 1.1//EN" "http://www.w3.org/Graphics/SVG/1.1/DTD/svg11.dtd">
<svg width="250pt" height="235pt" viewBox="0 0 250 235" version="1.1" xmlns="http://www.w3.org/2000/svg">
<g id="#ffffffff">
<path fill="#ffffff" opacity="1.00" d=" M 0.00 0.00 L 250.00 0.00 L 250.00 235.00 L 0.00 235.00 L 0.00 0.00 M 40.31 40.32 C 23.41 59.13 13.20 83.75 11.47 108.94 C 9.58 136.61 18.22 164.86 35.27 186.72 C 48.69 204.28 67.44 217.57 88.24 224.94 C 90.66 225.81 93.16 226.45 95.71 226.78 C 96.21 227.00 97.21 227.44 97.70 227.66 C 119.34 233.27 142.57 232.12 163.68 224.86 C 184.52 217.57 203.19 204.17 216.65 186.66 C 235.09 162.94 243.73 131.77 239.70 101.96 C 238.96 96.99 238.43 91.87 236.55 87.18 C 229.50 58.24 209.78 32.86 184.20 17.81 C 163.31 5.34 138.28 -0.01 114.11 2.54 C 85.93 5.31 59.03 19.08 40.31 40.32 Z" />
<path fill="#ffffff" opacity="1.00" d=" M 88.52 25.66 C 110.28 16.52 135.46 15.79 157.74 23.53 C 177.90 30.36 195.27 44.23 207.41 61.60 C 219.59 79.82 225.95 102.13 224.04 124.04 C 222.69 142.13 216.05 159.73 205.33 174.35 C 192.16 192.12 173.19 205.73 151.73 211.48 C 139.92 215.00 127.48 215.14 115.28 214.39 C 99.89 212.76 85.07 207.15 72.10 198.78 C 65.70 194.33 59.70 189.32 54.38 183.62 C 37.29 165.87 27.63 141.37 27.48 116.78 C 27.54 95.53 34.62 74.37 47.52 57.47 C 58.23 43.66 72.31 32.32 88.52 25.66 M 111.39 21.38 C 86.45 25.10 63.50 39.35 48.56 59.58 C 34.73 78.18 27.81 101.93 29.96 125.03 C 31.98 146.22 41.11 166.70 55.78 182.14 C 71.61 199.20 93.78 210.26 116.96 212.43 C 122.30 212.70 127.65 212.63 133.00 212.52 C 160.98 210.70 187.47 195.43 203.82 172.76 C 214.51 158.03 221.04 140.23 222.04 122.03 C 223.23 104.32 218.92 86.34 210.43 70.78 C 198.45 48.68 177.55 31.55 153.44 24.36 C 139.91 20.07 125.38 19.42 111.39 21.38 Z" />
<path fill="#ffffff" opacity="1.00" d=" M 67.58 50.58 C 106.51 50.55 145.45 50.53 184.39 50.58 C 184.37 61.12 184.48 71.66 184.33 82.20 C 156.04 82.27 127.76 82.11 99.48 82.27 C 99.49 91.67 99.42 101.06 99.52 110.46 C 113.76 110.58 128.01 110.33 142.26 110.59 C 128.95 124.48 115.10 137.86 101.56 151.53 C 100.77 152.57 99.41 153.49 99.52 154.94 C 99.40 164.13 99.53 173.33 99.48 182.52 C 88.83 182.52 78.18 182.53 67.53 182.50 C 67.58 138.53 67.52 94.55 67.58 50.58 Z" />
<path fill="#ffffff" opacity="1.00" d=" M 139.91 153.40 C 154.61 138.55 169.30 123.69 184.28 109.12 C 184.58 123.91 184.30 138.70 184.43 153.48 C 169.59 153.50 154.75 153.64 139.91 153.40 Z" />
</g>
<g id="#0a7ea5ff">
<path fill="#0a7ea5" opacity="1.00" d=" M 40.31 40.32 C 59.03 19.08 85.93 5.31 114.11 2.54 C 138.28 -0.01 163.31 5.34 184.20 17.81 C 209.78 32.86 229.50 58.24 236.55 87.18 C 228.21 80.66 221.27 72.61 213.77 65.18 C 212.03 63.40 209.72 62.40 207.41 61.60 C 195.27 44.23 177.90 30.36 157.74 23.53 C 135.46 15.79 110.28 16.52 88.52 25.66 C 72.31 32.32 58.23 43.66 47.52 57.47 C 34.62 74.37 27.54 95.53 27.48 116.78 C 27.63 141.37 37.29 165.87 54.38 183.62 C 59.70 189.32 65.70 194.33 72.10 198.78 C 71.58 198.79 70.54 198.81 70.02 198.82 C 75.92 205.94 82.61 212.35 89.28 218.74 C 91.75 221.14 93.70 224.00 95.71 226.78 C 93.16 226.45 90.66 225.81 88.24 224.94 C 67.44 217.57 48.69 204.28 35.27 186.72 C 18.22 164.86 9.58 136.61 11.47 108.94 C 13.20 83.75 23.41 59.13 40.31 40.32 Z" />
</g>
<g id="#086585ff">
<path fill="#086585" opacity="1.00" d=" M 111.39 21.38 C 125.38 19.42 139.91 20.07 153.44 24.36 C 177.55 31.55 198.45 48.68 210.43 70.78 C 218.92 86.34 223.23 104.32 222.04 122.03 C 221.04 140.23 214.51 158.03 203.82 172.76 C 187.47 195.43 160.98 210.70 133.00 212.52 C 127.65 212.63 122.30 212.70 116.96 212.43 C 93.78 210.26 71.61 199.20 55.78 182.14 C 41.11 166.70 31.98 146.22 29.96 125.03 C 27.81 101.93 34.73 78.18 48.56 59.58 C 63.50 39.35 86.45 25.10 111.39 21.38 M 67.58 50.58 C 67.52 94.55 67.58 138.53 67.53 182.50 C 78.18 182.53 88.83 182.52 99.48 182.52 C 99.53 173.33 99.40 164.13 99.52 154.94 C 99.41 153.49 100.77 152.57 101.56 151.53 C 115.10 137.86 128.95 124.48 142.26 110.59 C 128.01 110.33 113.76 110.58 99.52 110.46 C 99.42 101.06 99.49 91.67 99.48 82.27 C 127.76 82.11 156.04 82.27 184.33 82.20 C 184.48 71.66 184.37 61.12 184.39 50.58 C 145.45 50.53 106.51 50.55 67.58 50.58 M 139.91 153.40 C 154.75 153.64 169.59 153.50 184.43 153.48 C 184.30 138.70 184.58 123.91 184.28 109.12 C 169.30 123.69 154.61 138.55 139.91 153.40 Z" />
<path fill="#086585" opacity="1.00" d=" M 207.41 61.60 C 209.72 62.40 212.03 63.40 213.77 65.18 C 221.27 72.61 228.21 80.66 236.55 87.18 C 238.43 91.87 238.96 96.99 239.70 101.96 C 243.73 131.77 235.09 162.94 216.65 186.66 C 203.19 204.17 184.52 217.57 163.68 224.86 C 142.57 232.12 119.34 233.27 97.70 227.66 C 97.21 227.44 96.21 227.00 95.71 226.78 C 93.70 224.00 91.75 221.14 89.28 218.74 C 82.61 212.35 75.92 205.94 70.02 198.82 C 70.54 198.81 71.58 198.79 72.10 198.78 C 85.07 207.15 99.89 212.76 115.28 214.39 C 127.48 215.14 139.92 215.00 151.73 211.48 C 173.19 205.73 192.16 192.12 205.33 174.35 C 216.05 159.73 222.69 142.13 224.04 124.04 C 225.95 102.13 219.59 79.82 207.41 61.60 Z" />
</g>
</svg>

<?xml version="1.0" encoding="utf-8"?>
<!-- Generator: Adobe Illustrator 26.0.3, SVG Export Plug-In . SVG Version: 6.00 Build 0)  -->
<svg version="1.1" id="Layer_1" xmlns="http://www.w3.org/2000/svg" xmlns:xlink="http://www.w3.org/1999/xlink" x="0px" y="0px"
	 viewBox="0 0 250 235" style="enable-background:new 0 0 250 235;" xml:space="preserve">
<style type="text/css">
	.st0{fill:#FFFFFF;}
	.st1{fill:#0A7EA5;}
	.st2{fill:#086585;}
</style>
<g id="_x23_ffffffff">
	<path class="st0" d="M88.5,25.7c21.8-9.1,46.9-9.9,69.2-2.1c20.2,6.8,37.5,20.7,49.7,38.1c12.2,18.2,18.5,40.5,16.6,62.4
		c-1.3,18.1-8,35.7-18.7,50.3c-13.2,17.8-32.1,31.4-53.6,37.1c-11.8,3.5-24.2,3.7-36.4,2.9c-15.4-1.6-30.2-7.2-43.2-15.6
		c-6.4-4.4-12.4-9.5-17.7-15.2c-17.1-17.8-26.8-42.2-26.9-66.8c0.1-21.2,7.1-42.4,20-59.3C58.2,43.7,72.3,32.3,88.5,25.7
		 M111.4,21.4c-24.9,3.7-47.9,18-62.8,38.2C34.7,78.2,27.8,101.9,30,125c2,21.2,11.2,41.7,25.8,57.1c15.8,17.1,38,28.1,61.2,30.3
		c5.3,0.3,10.7,0.2,16,0.1c28-1.8,54.5-17.1,70.8-39.8C214.5,158,221,140.2,222,122c1.2-17.7-3.1-35.7-11.6-51.2
		c-12-22.1-32.9-39.2-57-46.4C139.9,20.1,125.4,19.4,111.4,21.4z"/>
	<path class="st0" d="M67.6,50.6c38.9,0,77.9-0.1,116.8,0c0,10.5,0.1,21.1-0.1,31.6c-28.3,0.1-56.6-0.1-84.8,0.1
		c0,9.4-0.1,18.8,0,28.2c14.2,0.1,28.5-0.1,42.7,0.1c-13.3,13.9-27.2,27.3-40.7,40.9c-0.8,1-2.1,2-2,3.4c-0.1,9.2,0,18.4,0,27.6
		c-10.7,0-21.3,0-32,0C67.6,138.5,67.5,94.6,67.6,50.6z"/>
	<path class="st0" d="M139.9,153.4c14.7-14.8,29.4-29.7,44.4-44.3c0.3,14.8,0,29.6,0.1,44.4C169.6,153.5,154.8,153.6,139.9,153.4z"
		/>
</g>
<g id="_x23_0a7ea5ff">
	<path class="st1" d="M40.3,40.3C59,19.1,85.9,5.3,114.1,2.5c24.2-2.5,49.2,2.8,70.1,15.3c25.6,15.1,45.3,40.4,52.4,69.4
		c-8.3-6.5-15.3-14.6-22.8-22c-1.7-1.8-4.1-2.8-6.4-3.6c-12.1-17.4-29.5-31.2-49.7-38.1c-22.3-7.7-47.5-7-69.2,2.1
		c-16.2,6.7-30.3,18-41,31.8c-12.9,16.9-20,38.1-20,59.3c0.1,24.6,9.8,49.1,26.9,66.8c5.3,5.7,11.3,10.7,17.7,15.2
		c-0.5,0-1.6,0-2.1,0c5.9,7.1,12.6,13.5,19.3,19.9c2.5,2.4,4.4,5.3,6.4,8c-2.5-0.3-5-1-7.5-1.8c-20.8-7.4-39.5-20.7-53-38.2
		c-17.1-21.9-25.7-50.1-23.8-77.8C13.2,83.8,23.4,59.1,40.3,40.3z"/>
</g>
<g id="_x23_086585ff">
	<path class="st2" d="M111.4,21.4c14-2,28.5-1.3,42.1,3c24.1,7.2,45,24.3,57,46.4c8.5,15.6,12.8,33.5,11.6,51.2
		c-1,18.2-7.5,36-18.2,50.7c-16.4,22.7-42.8,37.9-70.8,39.8c-5.3,0.1-10.7,0.2-16-0.1c-23.2-2.2-45.3-13.2-61.2-30.3
		C41.1,166.7,32,146.2,30,125c-2.1-23.1,4.8-46.8,18.6-65.4C63.5,39.3,86.4,25.1,111.4,21.4 M67.6,50.6c-0.1,44,0,87.9-0.1,131.9
		c10.7,0,21.3,0,32,0c0-9.2-0.1-18.4,0-27.6c-0.1-1.4,1.2-2.4,2-3.4c13.5-13.7,27.4-27,40.7-40.9c-14.2-0.3-28.5,0-42.7-0.1
		c-0.1-9.4,0-18.8,0-28.2c28.3-0.2,56.6,0,84.8-0.1c0.1-10.5,0-21.1,0.1-31.6C145.4,50.5,106.5,50.5,67.6,50.6 M139.9,153.4
		c14.8,0.2,29.7,0.1,44.5,0.1c-0.1-14.8,0.2-29.6-0.1-44.4C169.3,123.7,154.6,138.6,139.9,153.4z"/>
	<path class="st2" d="M207.4,61.6c2.3,0.8,4.6,1.8,6.4,3.6c7.5,7.4,14.4,15.5,22.8,22c1.9,4.7,2.4,9.8,3.1,14.8
		c4,29.8-4.6,61-23.1,84.7c-13.5,17.5-32.1,30.9-53,38.2c-21.1,7.3-44.3,8.4-66,2.8c-0.5-0.2-1.5-0.7-2-0.9c-2-2.8-4-5.6-6.4-8
		c-6.7-6.4-13.4-12.8-19.3-19.9c0.5,0,1.6,0,2.1,0c13,8.4,27.8,14,43.2,15.6c12.2,0.8,24.6,0.6,36.4-2.9
		c21.5-5.8,40.4-19.4,53.6-37.1c10.7-14.6,17.4-32.2,18.7-50.3C225.9,102.1,219.6,79.8,207.4,61.6z"/>
</g>
</svg>
